app/images/dist/intro-auto/intro__auto-3.svg

<svg width="1440" height="810" fill="none" xmlns="http://www.w3.org/2000/svg"><path d="M430.456 608.968c.172.64.444 1.079.817 1.317.384.245.806.306 1.266.183l.095-.026c.496-.133.823-.389.982-.77.17-.374.188-.814.052-1.319-.13-.486-.344-.854-.643-1.103a2.487 2.487 0 00-1.055-.529l.425-1.012c.22.066.443.157.666.271.236.12.456.274.66.461.205.186.392.416.562.69.17.273.305.599.407.978.106.396.152.785.138 1.166a2.541 2.541 0 01-.217 1.029 2.105 2.105 0 01-.58.808c-.257.233-.574.4-.953.501a2.25 2.25 0 01-.865.073 2.027 2.027 0 01-.737-.209 2.314 2.314 0 01-.615-.458 2.806 2.806 0 01-.473-.627l-.054.014a2.81 2.81 0 01-.075.803 2.123 2.123 0 01-.303.762c-.138.24-.333.452-.583.635-.239.19-.535.332-.886.426a2.817 2.817 0 01-1.184.071 2.645 2.645 0 01-1.04-.417 3.267 3.267 0 01-.826-.866 4.212 4.212 0 01-.554-1.257 4.103 4.103 0 01-.155-1.119c.006-.339.053-.651.141-.936.088-.284.201-.547.34-.787.141-.231.296-.446.464-.646l.878.678c-.158.168-.296.34-.413.517a2.36 2.36 0 00-.366 1.228c.004.231.044.491.121.779.179.667.463 1.132.853 1.395.398.261.877.316 1.435.166l.109-.029c.559-.149.941-.436 1.147-.858.214-.425.232-.97.054-1.638l-.298-1.108.988-.265.275 1.028zm-3.248 10.271c-.302-1.127-.095-2.067.621-2.819.719-.743 1.849-1.321 3.391-1.735 1.542-.413 2.809-.477 3.804-.193.996.294 1.645 1.004 1.947 2.131.302 1.127.094 2.062-.625 2.805-.716.753-1.845 1.335-3.387 1.748-1.541.414-2.811.473-3.807.18-.994-.284-1.642-.99-1.944-2.117zm.987-.264c.099.369.26.664.483.885.224.22.497.374.82.461.323.088.683.117 1.081.087.401-.02.831-.092 1.29-.215l1.542-.413c.46-.123.868-.276 1.225-.459.359-.173.657-.379.893-.616s.396-.507.479-.809c.083-.303.075-.639-.024-1.009-.099-.369-.26-.664-.483-.885a1.824 1.824 0 00-.82-.461 3.463 3.463 0 00-1.085-.101 6.95 6.95 0 00-1.286.229l-1.542.413c-.46.123-.869.272-1.229.445a3.485 3.485 0 00-.889.63 1.819 1.819 0 00-.479.809c-.083.303-.075.639.024 1.009zm.96 6.882l11.193 4.016.279 1.041-11.193-4.016-.279-1.041zm4.391-.597c-.183-.685-.099-1.273.252-1.763.361-.493.979-.857 1.853-1.091.875-.234 1.587-.227 2.137.022.558.246.93.712 1.113 1.397.184.685.095 1.274-.266 1.767-.351.491-.964.853-1.839 1.087-.874.235-1.591.229-2.15-.018-.55-.249-.916-.716-1.1-1.401zm.703-.188c.208.775.835 1.023 1.881.742l.811-.217c1.046-.28 1.465-.808 1.257-1.583-.208-.776-.834-1.023-1.88-.743l-.812.218c-1.045.28-1.464.807-1.257 1.583zm-3.368 7.874c-.184-.685-.1-1.273.252-1.763.36-.493.978-.857 1.853-1.091.874-.234 1.586-.227 2.136.022.559.246.93.712 1.114 1.397.183.685.095 1.274-.266 1.767-.352.491-.965.853-1.839 1.087-.875.235-1.592.228-2.15-.018-.55-.249-.917-.716-1.1-1.401zm.703-.188c.207.775.834 1.022 1.88.742l.811-.217c1.046-.28 1.465-.808 1.257-1.583-.207-.776-.834-1.023-1.88-.743l-.811.217c-1.046.281-1.465.808-1.257 1.584z" fill="#fff"/><g clip-path="url(#clip0)"><path d="M455.42 586.073a.67.67 0 01-.472.816l-1.932.518a.669.669 0 01-.75-.978.668.668 0 01.405-.31l1.932-.518a.667.667 0 01.817.472zm-9.66 2.588a.667.667 0 01-.471.816l-1.932.518a.663.663 0 01-.816-.472.665.665 0 01.471-.816l1.932-.518a.662.662 0 01.816.472zm4.946 5.577a.672.672 0 01-.817-.472l-.518-1.932a.666.666 0 111.288-.345l.518 1.932a.668.668 0 01-.471.817zm-2.589-9.66a.669.669 0 01-.816-.471l-.518-1.932a.663.663 0 01.472-.816.665.665 0 01.816.471l.518 1.932a.668.668 0 01-.472.816zm-2.47 8.993a.668.668 0 01-.244-.91l1-1.732a.666.666 0 011.154.667l-.999 1.731a.66.66 0 01-.405.311.652.652 0 01-.506-.067zm5-8.66a.67.67 0 01-.244-.911l.999-1.731a.665.665 0 01.911-.244.667.667 0 01.245.911l-1.001 1.731a.663.663 0 01-.91.244zm-7.44-.446a.666.666 0 01.91-.244l1.732 1a.646.646 0 01.2.171.649.649 0 01.138.496.673.673 0 01-.258.447.649.649 0 01-.499.129.677.677 0 01-.247-.088l-1.732-.999a.677.677 0 01-.328-.665.659.659 0 01.084-.247zm8.66 5a.67.67 0 01.911-.244l1.731.999a.666.666 0 11-.666 1.155l-1.732-1a.663.663 0 01-.244-.91z" fill="#fff"/></g><path d="M447.575 601.873l1.001-.268.706 2.637 7.6-2.036-.025-.095-2.856-1.786.54-.854 3.009 1.874.475 1.772-8.438 2.261.652 2.434-1.001.268-1.663-6.207zm3.821 14.262l-1.659-6.194 1.163-.311 3.666 2.322a7.195 7.195 0 001.582.765c.539.174 1.039.199 1.499.076l.162-.043c.523-.14.908-.398 1.155-.774.247-.375.292-.856.135-1.442a2.219 2.219 0 00-.324-.724 1.856 1.856 0 00-.491-.478 2.122 2.122 0 00-.618-.254 3.287 3.287 0 00-.688-.077l.121-1.119c.303.015.606.064.909.147.314.09.606.224.876.403.273.188.517.432.732.732.218.308.389.693.512 1.153.123.459.166.888.127 1.284-.039.397-.147.75-.325 1.059-.178.308-.417.57-.717.786a3.024 3.024 0 01-1.055.5 3.247 3.247 0 01-1.071.113 4.034 4.034 0 01-1.018-.176 5.671 5.671 0 01-1.003-.442 14.61 14.61 0 01-1.032-.607l-2.967-1.93 1.33 4.963-1.001.268zm1.203 5.136c-.302-1.127-.095-2.066.621-2.819.719-.743 1.849-1.321 3.391-1.735 1.542-.413 2.809-.477 3.804-.193.996.294 1.645 1.004 1.947 2.131.302 1.127.094 2.062-.625 2.805-.716.753-1.845 1.335-3.387 1.749-1.541.413-2.811.472-3.807.179-.994-.284-1.642-.99-1.944-2.117zm.987-.264c.099.369.26.664.483.885.224.22.497.374.82.461.323.088.683.117 1.081.087.401-.02.831-.092 1.291-.215l1.541-.413c.46-.123.868-.276 1.225-.459.359-.173.657-.379.893-.616s.396-.507.479-.809c.083-.303.075-.639-.024-1.009-.099-.369-.26-.664-.483-.885a1.824 1.824 0 00-.82-.461 3.463 3.463 0 00-1.085-.101c-.398.03-.827.106-1.286.229l-1.542.413c-.46.123-.869.272-1.229.445a3.485 3.485 0 00-.889.63 1.819 1.819 0 00-.479.809c-.083.303-.075.639.024 1.009zm1.222 8.508c-.302-1.127-.095-2.067.621-2.819.719-.743 1.849-1.322 3.391-1.735 1.541-.413 2.809-.477 3.803-.193.997.294 1.646 1.004 1.948 2.131.302 1.127.094 2.062-.625 2.805-.716.752-1.845 1.335-3.387 1.748-1.542.413-2.811.473-3.807.18-.994-.285-1.642-.99-1.944-2.117zm.987-.265c.099.37.26.665.483.885.224.221.497.375.82.462.323.087.683.116 1.081.087.401-.02.831-.092 1.29-.215l1.542-.413c.46-.124.868-.276 1.225-.459a3.24 3.24 0 00.893-.616c.236-.237.396-.507.479-.81.083-.302.075-.638-.024-1.008-.099-.369-.26-.664-.483-.885a1.824 1.824 0 00-.82-.461 3.466 3.466 0 00-1.085-.101 6.892 6.892 0 00-1.287.229l-1.541.413c-.46.123-.869.271-1.229.445a3.46 3.46 0 00-.889.63 1.819 1.819 0 00-.479.809c-.083.303-.075.639.024 1.008zm1.831 10.133l-.305-1.136 9.439-2.529 1.008 3.759c.222.829.165 1.536-.172 2.119-.334.592-.934 1.004-1.799 1.235-.694.187-1.31.178-1.848-.026-.526-.197-.945-.588-1.256-1.171l-3.585 3.28-.345-1.285 3.51-3.129-.59-2.204-4.057 1.087zm5.733 1.275c.121.451.331.767.631.947.302.19.669.227 1.102.111l.703-.189c.433-.115.733-.331.899-.646.17-.307.194-.685.073-1.136l-.703-2.623-3.408.913.703 2.623zm-3.684 6.374l9.439-2.529 1.008 3.759c.227.848.157 1.562-.209 2.143-.354.588-.951.994-1.789 1.219-.839.225-1.563.172-2.173-.157-.599-.323-1.011-.908-1.239-1.755l-.702-2.624-4.03 1.08-.305-1.136zm5.335-.212l.703 2.623c.121.451.331.767.631.948.302.189.669.226 1.102.11l.703-.188c.433-.116.733-.332.899-.647.17-.306.194-.685.073-1.136l-.703-2.623-3.408.913zm6.822 13.774l-.018-.068-1.796-.373-4.717-1.157 3.506-3.36 1.369-1.222-.018-.068-7.952 2.131-.297-1.109 9.439-2.529.406 1.515-4.36 4.067.018.067 5.813 1.356.391 1.46-9.439 2.53-.297-1.109 7.952-2.131z" fill="#fff"/><defs><clipPath id="clip0"><path fill="#fff" transform="rotate(75 -149.314 585.247)" d="M0 0h16v16H0z"/></clipPath></defs></svg>

<svg width="1440" height="810" viewBox="0 0 1440 810" fill="none" xmlns="http://www.w3.org/2000/svg">
<path d="M430.456 608.968C430.628 609.608 430.9 610.047 431.273 610.285C431.657 610.53 432.079 610.591 432.539 610.468L432.634 610.442C433.13 610.309 433.457 610.053 433.616 609.672C433.786 609.298 433.804 608.858 433.668 608.353C433.538 607.867 433.324 607.499 433.025 607.25C432.736 606.999 432.384 606.823 431.97 606.721L432.395 605.709C432.615 605.775 432.838 605.866 433.061 605.98C433.297 606.1 433.517 606.254 433.721 606.441C433.926 606.627 434.113 606.857 434.283 607.131C434.453 607.404 434.588 607.73 434.69 608.109C434.796 608.505 434.842 608.894 434.828 609.275C434.823 609.653 434.751 609.996 434.611 610.304C434.483 610.618 434.29 610.888 434.031 611.112C433.774 611.345 433.457 611.512 433.078 611.613C432.772 611.695 432.483 611.72 432.213 611.686C431.946 611.661 431.7 611.591 431.476 611.477C431.252 611.363 431.047 611.211 430.861 611.019C430.677 610.836 430.519 610.627 430.388 610.392L430.334 610.406C430.348 610.673 430.323 610.941 430.259 611.209C430.207 611.484 430.106 611.738 429.956 611.971C429.818 612.211 429.623 612.423 429.373 612.606C429.134 612.796 428.838 612.938 428.487 613.032C428.081 613.141 427.686 613.164 427.303 613.103C426.928 613.039 426.582 612.9 426.263 612.686C425.954 612.469 425.679 612.18 425.437 611.82C425.196 611.459 425.011 611.04 424.883 610.563C424.774 610.157 424.723 609.784 424.728 609.444C424.734 609.105 424.781 608.793 424.869 608.508C424.957 608.224 425.07 607.961 425.209 607.721C425.35 607.49 425.505 607.275 425.673 607.075L426.551 607.753C426.393 607.921 426.255 608.093 426.138 608.27C426.024 608.455 425.935 608.648 425.873 608.848C425.811 609.048 425.777 609.265 425.772 609.498C425.776 609.729 425.816 609.989 425.893 610.277C426.072 610.944 426.356 611.409 426.746 611.672C427.144 611.933 427.623 611.988 428.181 611.838L428.29 611.809C428.849 611.66 429.231 611.373 429.437 610.951C429.651 610.526 429.669 609.981 429.491 609.313L429.193 608.205L430.181 607.94L430.456 608.968ZM427.208 619.239C426.906 618.112 427.113 617.172 427.829 616.42C428.548 615.677 429.678 615.099 431.22 614.685C432.762 614.272 434.029 614.208 435.024 614.492C436.02 614.786 436.669 615.496 436.971 616.623C437.273 617.75 437.065 618.685 436.346 619.428C435.63 620.181 434.501 620.763 432.959 621.176C431.418 621.59 430.148 621.649 429.152 621.356C428.158 621.072 427.51 620.366 427.208 619.239ZM428.195 618.975C428.294 619.344 428.455 619.639 428.678 619.86C428.902 620.08 429.175 620.234 429.498 620.321C429.821 620.409 430.181 620.438 430.579 620.408C430.98 620.388 431.41 620.316 431.869 620.193L433.411 619.78C433.871 619.657 434.279 619.504 434.636 619.321C434.995 619.148 435.293 618.942 435.529 618.705C435.765 618.468 435.925 618.198 436.008 617.896C436.091 617.593 436.083 617.257 435.984 616.887C435.885 616.518 435.724 616.223 435.501 616.002C435.277 615.782 435.004 615.628 434.681 615.541C434.358 615.453 433.997 615.42 433.596 615.44C433.198 615.469 432.769 615.546 432.31 615.669L430.768 616.082C430.308 616.205 429.899 616.354 429.539 616.527C429.182 616.71 428.886 616.92 428.65 617.157C428.414 617.394 428.254 617.664 428.171 617.966C428.088 618.269 428.096 618.605 428.195 618.975ZM429.155 625.857L440.348 629.873L440.627 630.914L429.434 626.898L429.155 625.857ZM433.546 625.26C433.363 624.575 433.447 623.987 433.798 623.497C434.159 623.004 434.777 622.64 435.651 622.406C436.526 622.172 437.238 622.179 437.788 622.428C438.346 622.674 438.718 623.14 438.901 623.825C439.085 624.51 438.996 625.099 438.635 625.592C438.284 626.083 437.671 626.445 436.796 626.679C435.922 626.914 435.205 626.908 434.646 626.661C434.096 626.412 433.73 625.945 433.546 625.26ZM434.249 625.072C434.457 625.847 435.084 626.095 436.13 625.814L436.941 625.597C437.987 625.317 438.406 624.789 438.198 624.014C437.99 623.238 437.364 622.991 436.318 623.271L435.506 623.489C434.461 623.769 434.042 624.296 434.249 625.072ZM430.881 632.946C430.697 632.261 430.781 631.673 431.133 631.183C431.493 630.69 432.111 630.326 432.986 630.092C433.86 629.858 434.572 629.865 435.122 630.114C435.681 630.36 436.052 630.826 436.236 631.511C436.419 632.196 436.331 632.785 435.97 633.278C435.618 633.769 435.005 634.131 434.131 634.365C433.256 634.6 432.539 634.593 431.981 634.347C431.431 634.098 431.064 633.631 430.881 632.946ZM431.584 632.758C431.791 633.533 432.418 633.78 433.464 633.5L434.275 633.283C435.321 633.003 435.74 632.475 435.532 631.7C435.325 630.924 434.698 630.677 433.652 630.957L432.841 631.174C431.795 631.455 431.376 631.982 431.584 632.758Z" fill="white"/>
<g clip-path="url(#clip0)">
<path d="M455.42 586.073C455.465 586.243 455.441 586.425 455.353 586.578C455.265 586.732 455.119 586.843 454.948 586.889L453.016 587.407C452.846 587.452 452.664 587.429 452.51 587.34C452.357 587.252 452.246 587.106 452.2 586.935C452.154 586.765 452.178 586.583 452.266 586.429C452.355 586.276 452.5 586.165 452.671 586.119L454.603 585.601C454.774 585.555 454.956 585.579 455.109 585.668C455.262 585.756 455.374 585.902 455.42 586.073ZM445.76 588.661C445.806 588.832 445.782 589.014 445.694 589.167C445.605 589.32 445.46 589.431 445.289 589.477L443.357 589.995C443.186 590.041 443.004 590.017 442.851 589.928C442.698 589.84 442.586 589.694 442.541 589.523C442.495 589.353 442.519 589.171 442.607 589.018C442.696 588.864 442.841 588.753 443.012 588.707L444.944 588.189C445.115 588.144 445.297 588.168 445.45 588.256C445.603 588.344 445.715 588.49 445.76 588.661ZM450.706 594.238C450.535 594.283 450.353 594.259 450.2 594.171C450.047 594.083 449.935 593.937 449.889 593.766L449.371 591.834C449.326 591.663 449.35 591.482 449.438 591.328C449.526 591.175 449.672 591.064 449.843 591.018C450.014 590.972 450.196 590.996 450.349 591.084C450.502 591.173 450.614 591.318 450.659 591.489L451.177 593.421C451.223 593.592 451.199 593.774 451.11 593.927C451.022 594.08 450.876 594.192 450.706 594.238ZM448.117 584.578C447.947 584.624 447.765 584.6 447.611 584.512C447.458 584.423 447.347 584.278 447.301 584.107L446.783 582.175C446.737 582.004 446.761 581.822 446.85 581.669C446.938 581.516 447.084 581.404 447.255 581.359C447.425 581.313 447.607 581.337 447.76 581.425C447.914 581.514 448.025 581.659 448.071 581.83L448.589 583.762C448.634 583.933 448.611 584.115 448.522 584.268C448.434 584.421 448.288 584.533 448.117 584.578ZM445.647 593.571C445.494 593.483 445.382 593.337 445.336 593.167C445.29 592.996 445.314 592.814 445.403 592.661L446.403 590.929C446.493 590.779 446.638 590.671 446.807 590.627C446.976 590.583 447.156 590.608 447.307 590.695C447.459 590.783 447.57 590.926 447.617 591.094C447.663 591.263 447.642 591.443 447.557 591.596L446.558 593.327C446.514 593.403 446.456 593.47 446.386 593.523C446.317 593.576 446.238 593.616 446.153 593.638C446.068 593.661 445.98 593.667 445.893 593.655C445.806 593.644 445.723 593.615 445.647 593.571ZM450.647 584.911C450.494 584.822 450.382 584.677 450.336 584.506C450.291 584.335 450.315 584.153 450.403 584L451.402 582.269C451.491 582.116 451.636 582.004 451.807 581.959C451.978 581.913 452.16 581.937 452.313 582.025C452.466 582.113 452.578 582.259 452.624 582.43C452.67 582.601 452.646 582.783 452.558 582.936L451.557 584.667C451.469 584.82 451.323 584.932 451.153 584.977C450.982 585.023 450.8 584.999 450.647 584.911ZM443.207 584.465C443.295 584.312 443.441 584.201 443.612 584.155C443.782 584.109 443.964 584.133 444.117 584.221L445.849 585.221C445.927 585.264 445.995 585.322 446.049 585.392C446.104 585.461 446.145 585.541 446.168 585.626C446.192 585.711 446.198 585.801 446.187 585.888C446.176 585.976 446.147 586.061 446.103 586.138C446.059 586.214 446 586.281 445.929 586.335C445.859 586.389 445.779 586.428 445.693 586.45C445.607 586.472 445.518 586.477 445.43 586.464C445.343 586.451 445.258 586.421 445.183 586.376L443.451 585.377C443.375 585.333 443.309 585.274 443.255 585.205C443.202 585.136 443.163 585.056 443.14 584.972C443.117 584.887 443.112 584.799 443.123 584.712C443.134 584.625 443.163 584.541 443.207 584.465ZM451.867 589.465C451.956 589.312 452.101 589.2 452.272 589.154C452.443 589.109 452.625 589.133 452.778 589.221L454.509 590.22C454.663 590.309 454.774 590.454 454.82 590.625C454.866 590.796 454.842 590.978 454.754 591.131C454.665 591.284 454.52 591.396 454.349 591.442C454.178 591.488 453.996 591.464 453.843 591.375L452.111 590.375C451.958 590.287 451.846 590.141 451.801 589.971C451.755 589.8 451.779 589.618 451.867 589.465Z" fill="white"/>
</g>
<path d="M447.575 601.873L448.576 601.605L449.282 604.242L456.882 602.206L456.857 602.111L454.001 600.325L454.541 599.471L457.55 601.345L458.025 603.117L449.587 605.378L450.239 607.812L449.238 608.08L447.575 601.873ZM451.396 616.135L449.737 609.941L450.9 609.63L454.566 611.952C455.09 612.285 455.617 612.54 456.148 612.717C456.687 612.891 457.187 612.916 457.647 612.793L457.809 612.75C458.332 612.61 458.717 612.352 458.964 611.976C459.211 611.601 459.256 611.12 459.099 610.534C459.022 610.246 458.914 610.004 458.775 609.81C458.636 609.615 458.472 609.456 458.284 609.332C458.099 609.218 457.893 609.133 457.666 609.078C457.45 609.029 457.221 609.004 456.978 609.001L457.099 607.882C457.402 607.897 457.705 607.946 458.008 608.029C458.322 608.119 458.614 608.253 458.884 608.432C459.157 608.62 459.401 608.864 459.616 609.164C459.834 609.472 460.005 609.857 460.128 610.317C460.251 610.776 460.294 611.205 460.255 611.601C460.216 611.998 460.108 612.351 459.93 612.66C459.752 612.968 459.513 613.23 459.213 613.446C458.916 613.671 458.564 613.837 458.158 613.946C457.789 614.045 457.432 614.083 457.087 614.059C456.745 614.045 456.406 613.986 456.069 613.883C455.741 613.777 455.407 613.63 455.066 613.441C454.728 613.261 454.384 613.059 454.034 612.834L451.067 610.904L452.397 615.867L451.396 616.135ZM452.599 621.271C452.297 620.144 452.504 619.205 453.22 618.452C453.939 617.709 455.069 617.131 456.611 616.717C458.153 616.304 459.42 616.24 460.415 616.524C461.411 616.818 462.06 617.528 462.362 618.655C462.664 619.782 462.456 620.717 461.737 621.46C461.021 622.213 459.892 622.795 458.35 623.209C456.809 623.622 455.539 623.681 454.543 623.388C453.549 623.104 452.901 622.398 452.599 621.271ZM453.586 621.007C453.685 621.376 453.846 621.671 454.069 621.892C454.293 622.112 454.566 622.266 454.889 622.353C455.212 622.441 455.572 622.47 455.97 622.44C456.371 622.42 456.801 622.348 457.261 622.225L458.802 621.812C459.262 621.689 459.67 621.536 460.027 621.353C460.386 621.18 460.684 620.974 460.92 620.737C461.156 620.5 461.316 620.23 461.399 619.928C461.482 619.625 461.474 619.289 461.375 618.919C461.276 618.55 461.115 618.255 460.892 618.034C460.668 617.814 460.395 617.66 460.072 617.573C459.749 617.485 459.388 617.452 458.987 617.472C458.589 617.502 458.16 617.578 457.701 617.701L456.159 618.114C455.699 618.237 455.29 618.386 454.93 618.559C454.573 618.742 454.277 618.952 454.041 619.189C453.805 619.426 453.645 619.696 453.562 619.998C453.479 620.301 453.487 620.637 453.586 621.007ZM454.808 629.515C454.506 628.388 454.713 627.448 455.429 626.696C456.148 625.953 457.278 625.374 458.82 624.961C460.361 624.548 461.629 624.484 462.623 624.768C463.62 625.062 464.269 625.772 464.571 626.899C464.873 628.026 464.665 628.961 463.946 629.704C463.23 630.456 462.101 631.039 460.559 631.452C459.017 631.865 457.748 631.925 456.752 631.632C455.758 631.347 455.11 630.642 454.808 629.515ZM455.795 629.25C455.894 629.62 456.055 629.915 456.278 630.135C456.502 630.356 456.775 630.51 457.098 630.597C457.421 630.684 457.781 630.713 458.179 630.684C458.58 630.664 459.01 630.592 459.469 630.469L461.011 630.056C461.471 629.932 461.879 629.78 462.236 629.597C462.595 629.423 462.893 629.218 463.129 628.981C463.365 628.744 463.525 628.474 463.608 628.171C463.691 627.869 463.683 627.533 463.584 627.163C463.485 626.794 463.324 626.499 463.101 626.278C462.877 626.058 462.604 625.904 462.281 625.817C461.958 625.729 461.596 625.696 461.196 625.716C460.798 625.745 460.369 625.821 459.909 625.945L458.368 626.358C457.908 626.481 457.499 626.629 457.139 626.803C456.782 626.986 456.486 627.195 456.25 627.433C456.014 627.67 455.854 627.94 455.771 628.242C455.688 628.545 455.696 628.881 455.795 629.25ZM457.626 639.383L457.321 638.247L466.76 635.718L467.768 639.477C467.99 640.306 467.933 641.013 467.596 641.596C467.262 642.188 466.662 642.6 465.797 642.831C465.103 643.018 464.487 643.009 463.949 642.805C463.423 642.608 463.004 642.217 462.693 641.634L459.108 644.914L458.763 643.629L462.273 640.5L461.683 638.296L457.626 639.383ZM463.359 640.658C463.48 641.109 463.69 641.425 463.99 641.605C464.292 641.795 464.659 641.832 465.092 641.716L465.795 641.527C466.228 641.412 466.528 641.196 466.694 640.881C466.864 640.574 466.888 640.196 466.767 639.745L466.064 637.122L462.656 638.035L463.359 640.658ZM459.675 647.032L469.114 644.503L470.122 648.262C470.349 649.11 470.279 649.824 469.913 650.405C469.559 650.993 468.962 651.399 468.124 651.624C467.285 651.849 466.561 651.796 465.951 651.467C465.352 651.144 464.94 650.559 464.712 649.712L464.01 647.088L459.98 648.168L459.675 647.032ZM465.01 646.82L465.713 649.443C465.834 649.894 466.044 650.21 466.344 650.391C466.646 650.58 467.013 650.617 467.446 650.501L468.149 650.313C468.582 650.197 468.882 649.981 469.048 649.666C469.218 649.36 469.242 648.981 469.121 648.53L468.418 645.907L465.01 646.82ZM471.832 660.594L471.814 660.526L470.018 660.153L465.301 658.996L468.807 655.636L470.176 654.414L470.158 654.346L462.206 656.477L461.909 655.368L471.348 652.839L471.754 654.354L467.394 658.421L467.412 658.488L473.225 659.844L473.616 661.304L464.177 663.834L463.88 662.725L471.832 660.594Z" fill="white"/>
<defs>
<clipPath id="clip0">
<rect width="16" height="16" fill="white" transform="translate(454.637 578) rotate(75)"/>
</clipPath>
</defs>
</svg>
